assets/logistics-color/LogisticsColor20.svg

<svg xmlns="http://www.w3.org/2000/svg" id="Layer_1" x="0" y="0" version="1.1" viewBox="0 0 256 256" xml:space="preserve"><style>.st0{fill:#fff}.st1{fill:#48386a}.st2{fill:#9feaff}</style><path d="M32.9 46h21.6v10.8H32.9z" class="st0" transform="rotate(-180 43.696 51.344)"/><path d="M54.5 57.7H32.9c-.6 0-1-.4-1-1V46c0-.6.4-1 1-1h21.6c.6 0 1 .4 1 1v10.8c0 .5-.5.9-1 .9zm-20.6-2h19.6V47H33.9v8.7z" class="st1"/><path d="M37.9 46h21.6v10.8H37.9z" class="st2" transform="rotate(-180 48.696 51.344)"/><path d="M54.5 57.7H32.9c-.6 0-1-.4-1-1V46c0-.6.4-1 1-1h21.6c.6 0 1 .4 1 1v10.8c0 .5-.5.9-1 .9zm-20.6-2h19.6V47H33.9v8.7z" class="st1"/><path d="M201.5 46h21.6v10.8h-21.6z" class="st0"/><path d="M223.1 57.7h-21.6c-.6 0-1-.4-1-1V46c0-.6.4-1 1-1h21.6c.6 0 1 .4 1 1v10.8c0 .5-.5.9-1 .9zm-20.6-2h19.6V47h-19.6v8.7z" class="st1"/><path d="M206.5 46h21.6v10.8h-21.6z" class="st2"/><path d="M223.1 57.7h-21.6c-.6 0-1-.4-1-1V46c0-.6.4-1 1-1h21.6c.6 0 1 .4 1 1v10.8c0 .5-.5.9-1 .9zm-20.6-2h19.6V47h-19.6v8.7z" class="st1"/><path d="M170.9 75.2H85.1l4.1-12.5 2-6 4.1-12.4h9.9v23.2h45.6V44.3h9.9l4.1 12.4 2 6z" class="st0"/><path d="M170.9 76.2H85.1c-.3 0-.6-.2-.8-.4-.2-.3-.2-.6-.1-.9L94.4 44c.1-.4.5-.7.9-.7h9.8c.6 0 1 .4 1 1v22.2h43.7V44.3c0-.6.4-1 1-1h9.8c.4 0 .8.3.9.7l10.2 30.9c.1.3 0 .6-.1.9-.1.2-.4.4-.7.4zm-84.4-2h83L160 45.3h-8.1v22.2c0 .6-.4 1-1 1h-45.7c-.6 0-1-.4-1-1V45.3h-8.1l-9.6 28.9z" class="st1"/><path d="M150.8 68.5h-45.7c-.6 0-1-.4-1-1V44.3c0-.6.4-1 1-1h45.7c.6 0 1 .4 1 1v23.2c0 .6-.4 1-1 1zm-44.6-2h43.7V45.3h-43.7v21.2z" class="st1"/><path d="M150.8 52.7v14.8h-45.6V44.3h45.6v8.4z" class="st0"/><path d="M150.8 68.5h-45.7c-.6 0-1-.4-1-1V44.3c0-.6.4-1 1-1h45.7c.6 0 1 .4 1 1v23.2c0 .6-.4 1-1 1zm-44.6-2h43.7V45.3h-43.7v21.2z" class="st1"/><path d="M250.5 59.7c0 1.7-1.3 3-3 3h-80.7l-2-6h82.7c1.7 0 3 1.4 3 3z" class="st0"/><path d="M247.5 63.7h-80.7c-.4 0-.8-.3-.9-.7l-2-6c-.1-.3 0-.6.1-.9.2-.3.5-.4.8-.4h82.7c2.2 0 4 1.8 4 4s-1.8 4-4 4zm-80-2h80c1.1 0 2-.9 2-2s-.9-2-2-2h-81.3l1.3 4z" class="st1"/><path d="M250.5 59.7c0 1.7-1.3 3-3 3h-80.7l-2-6h82.7c1.7 0 3 1.4 3 3z" class="st0"/><path d="M247.5 63.7h-80.7c-.4 0-.8-.3-.9-.7l-2-6c-.1-.3 0-.6.1-.9.2-.3.5-.4.8-.4h82.7c2.2 0 4 1.8 4 4s-1.8 4-4 4zm-80-2h80c1.1 0 2-.9 2-2s-.9-2-2-2h-81.3l1.3 4z" class="st1"/><path d="M208.9 35.2h6.8V46h-6.8z" class="st0"/><path d="M215.7 47h-6.8c-.6 0-1-.4-1-1V35.2c0-.6.4-1 1-1h6.8c.6 0 1 .4 1 1V46c0 .5-.4 1-1 1zm-5.8-2h4.8v-8.8h-4.8V45z" class="st1"/><path d="M223.2 35.2h-31.4c-2.9 0-5.3-2.4-5.3-5.3v-.2c0-2.9 2.4-5.3 5.3-5.3H233c2.9 0 5.3 2.4 5.3 5.3v.2c0 2.9-2.4 5.3-5.3 5.3h-9.8z" class="st0"/><path d="M232.9 36.2h-3.7c-.6 0-1-.4-1-1s.4-1 1-1h3.7c2.4 0 4.3-1.9 4.3-4.3v-.2c0-2.4-1.9-4.3-4.3-4.3h-41.2c-2.4 0-4.3 1.9-4.3 4.3v.2c0 2.4 1.9 4.3 4.3 4.3h31.4c.6 0 1 .4 1 1s-.4 1-1 1h-31.4c-3.5 0-6.3-2.8-6.3-6.3v-.2c0-3.5 2.8-6.3 6.3-6.3h41.2c3.5 0 6.3 2.8 6.3 6.3v.2c0 3.5-2.9 6.3-6.3 6.3z" class="st1"/><path d="M30.7 62.7H8.5c-1.7 0-3-1.3-3-3s1.3-3 3-3h82.7l-2 6H30.7z" class="st0"/><path d="M89.2 63.7H36.5c-.6 0-1-.4-1-1s.4-1 1-1h52l1.3-4H8.5c-1.1 0-2 .9-2 2s.9 2 2 2h22.2c.6 0 1 .4 1 1s-.4 1-1 1H8.5c-2.2 0-4-1.8-4-4s1.8-4 4-4h82.7c.3 0 .6.2.8.4.2.3.2.6.1.9l-2 6c0 .5-.4.7-.9.7z" class="st1"/><path d="M40.3 35.2h6.8V46h-6.8z" class="st0" transform="rotate(-180 43.696 40.561)"/><path d="M47.1 47h-6.8c-.6 0-1-.4-1-1V35.2c0-.6.4-1 1-1h6.8c.6 0 1 .4 1 1V46c0 .5-.4 1-1 1zm-5.8-2h4.8v-8.8h-4.8V45z" class="st1"/><path d="M23.1 35.2h41.2c2.9 0 5.3-2.4 5.3-5.3v-.2c0-2.9-2.4-5.3-5.3-5.3H23.1c-2.9 0-5.3 2.4-5.3 5.3v.2c0 2.9 2.4 5.3 5.3 5.3z" class="st0"/><path d="M64.3 36.2H23.1c-3.5 0-6.3-2.8-6.3-6.3v-.2c0-3.5 2.8-6.3 6.3-6.3h41.2c3.5 0 6.3 2.8 6.3 6.3v.2c0 3.5-2.9 6.3-6.3 6.3zM23.1 25.4c-2.4 0-4.3 1.9-4.3 4.3v.2c0 2.4 1.9 4.3 4.3 4.3h41.2c2.4 0 4.3-1.9 4.3-4.3v-.2c0-2.4-1.9-4.3-4.3-4.3H23.1z" class="st1"/><path d="M151.7 87.9v7.7h-47.4V75.2h47.4v7.2z" class="st0"/><path d="M151.7 96.6h-47.5c-.6 0-1-.4-1-1V75.2c0-.6.4-1 1-1h47.5c.6 0 1 .4 1 1v7.2c0 .6-.4 1-1 1s-1-.4-1-1v-6.2h-45.5v18.4h45.5v-6.7c0-.6.4-1 1-1s1 .4 1 1v7.7c0 .5-.4 1-1 1z" class="st1"/><path d="M177 231.5H61.6V120.9h132.8v110.6h-12.9z" class="st0"/><path d="M194.4 232.5h-12.9c-.6 0-1-.4-1-1s.4-1 1-1h11.9V121.9H62.6v108.6H177c.6 0 1 .4 1 1s-.4 1-1 1H61.6c-.6 0-1-.4-1-1V120.9c0-.6.4-1 1-1h132.7c.6 0 1 .4 1 1v110.6c.1.6-.4 1-.9 1z" class="st1"/><path d="M184.8 172.9h-27.3c-.3 0-.5-.2-.5-.5s.2-.5.5-.5h26.8v-39.8h-38.6v21.8c0 .3-.2.5-.5.5h-31.4c-.3 0-.5-.2-.5-.5v-21.8H71.7v39.8h80.1c.3 0 .5.2.5.5s-.2.5-.5.5H71.2c-.3 0-.5-.2-.5-.5v-40.8c0-.3.2-.5.5-.5h42.6c.3 0 .5.2.5.5v21.8h30.4v-21.8c0-.3.2-.5.5-.5h39.6c.3 0 .5.2.5.5v40.8c0 .3-.2.5-.5.5zM184.8 221.3h-25.6c-.3 0-.5-.2-.5-.5V206h-58.5v14.8c0 .3-.2.5-.5.5H71.2c-.3 0-.5-.2-.5-.5v-24.9c0-.3.2-.5.5-.5h113.7c.3 0 .5.2.5.5v24.9c-.1.3-.3.5-.6.5zm-25-1h24.6v-23.9H71.7v23.9h27.6v-14.8c0-.3.2-.5.5-.5h59.5c.3 0 .5.2.5.5v14.8z" class="st1"/><path d="M194.4 196.9H61.6c-.6 0-1-.4-1-1v-23.5c0-.6.4-1 1-1h90.1c.6 0 1 .4 1 1s-.4 1-1 1H62.6v21.5h130.7v-21.5h-35.9c-.6 0-1-.4-1-1s.4-1 1-1h36.9c.6 0 1 .4 1 1v23.5c.1.6-.4 1-.9 1zM159.3 232.6H99.7c-.6 0-1-.4-1-1v-26c0-.6.4-1 1-1h59.5c.6 0 1 .4 1 1v26c.1.6-.4 1-.9 1zm-58.6-2h57.5v-24h-57.5v24z" class="st1"/><path d="M155.8 52.7v14.8h-45.6V44.3h45.6v8.4zM228.2 35.2h-31.4c-2.9 0-5.3-2.4-5.3-5.3v-.2c0-2.9 2.4-5.3 5.3-5.3H238c2.9 0 5.3 2.4 5.3 5.3v.2c0 2.9-2.4 5.3-5.3 5.3h-9.8zM28.1 35.2h41.2c2.9 0 5.3-2.4 5.3-5.3v-.2c0-2.9-2.4-5.3-5.3-5.3H28.1c-2.9 0-5.3 2.4-5.3 5.3v.2c0 2.9 2.4 5.3 5.3 5.3z" class="st2"/><path d="M125.8 72.4h14.3v30.1h-14.3z" class="st2" transform="rotate(90 133 87.452)"/><path d="M98.4 177.7h98.4v12.9H66.7v-12.9h27.1zM134.5 148.6h-10.3v-27.7h20.7v27.7h-6.8zM134.1 210.9h24v20.6h-48v-20.6H127z" class="st2"/><path d="M83.8 121.4c-.1 0-.2 0-.3-.1-.2-.2-.2-.5-.1-.7l20.4-25.3c.2-.2.5-.2.7-.1.2.2.2.5.1.7l-20.4 25.3c-.1.2-.2.2-.4.2zM172.2 121.4c-.1 0-.3-.1-.4-.2l-20.4-25.3c-.2-.2-.1-.5.1-.7.2-.2.5-.1.7.1l20.4 25.3c.2.2.1.5-.1.7-.1.1-.2.1-.3.1z" class="st1"/><g><path d="M69.6 30.3H55.7c-.3 0-.5-.2-.5-.5s.2-.5.5-.5h13.9c.3 0 .5.2.5.5s-.3.5-.5.5z" class="st1"/></g><g><path d="M49.8 30.3h-32c-.3 0-.5-.2-.5-.5s.2-.5.5-.5h32c.3 0 .5.2.5.5s-.2.5-.5.5z" class="st1"/></g><g><path d="M64.3 36.2H23.1c-3.5 0-6.3-2.8-6.3-6.3v-.2c0-3.5 2.8-6.3 6.3-6.3h41.2c3.5 0 6.3 2.8 6.3 6.3v.2c0 3.5-2.9 6.3-6.3 6.3zM23.1 25.4c-2.4 0-4.3 1.9-4.3 4.3v.2c0 2.4 1.9 4.3 4.3 4.3h41.2c2.4 0 4.3-1.9 4.3-4.3v-.2c0-2.4-1.9-4.3-4.3-4.3H23.1z" class="st1"/></g><g><path d="M145.7 62.9h-5.9c-.3 0-.5-.2-.5-.5s.2-.5.5-.5h5.4V44.8h-34.5v17.1H135c.3 0 .5.2.5.5s-.2.5-.5.5h-24.7c-.3 0-.5-.2-.5-.5V44.3c0-.3.2-.5.5-.5h35.5c.3 0 .5.2.5.5v18.1c-.1.3-.3.5-.6.5z" class="st1"/></g><g><path d="M150.8 68.5h-45.7c-.6 0-1-.4-1-1V44.3c0-.6.4-1 1-1h45.7c.6 0 1 .4 1 1v23.2c0 .6-.4 1-1 1zm-44.6-2h43.7V45.3h-43.7v21.2z" class="st1"/></g><g><path d="M238.2 30.3h-51.7c-.3 0-.5-.2-.5-.5s.2-.5.5-.5h51.7c.3 0 .5.2.5.5s-.3.5-.5.5z" class="st1"/></g><g><path d="M232.9 36.2h-3.7c-.6 0-1-.4-1-1s.4-1 1-1h3.7c2.4 0 4.3-1.9 4.3-4.3v-.2c0-2.4-1.9-4.3-4.3-4.3h-41.2c-2.4 0-4.3 1.9-4.3 4.3v.2c0 2.4 1.9 4.3 4.3 4.3h31.4c.6 0 1 .4 1 1s-.4 1-1 1h-31.4c-3.5 0-6.3-2.8-6.3-6.3v-.2c0-3.5 2.8-6.3 6.3-6.3h41.2c3.5 0 6.3 2.8 6.3 6.3v.2c0 3.5-2.9 6.3-6.3 6.3z" class="st1"/></g><g><path d="M143.1 96.1H113c-.3 0-.5-.2-.5-.5V80.3c0-.3.2-.5.5-.5h30.1c.3 0 .5.2.5.5v15.3c0 .3-.3.5-.5.5zm-29.7-1h29.1V80.8h-29.1v14.3z" class="st1"/><path d="M128 92.5c-2.5 0-4.6-2.1-4.6-4.6s2.1-4.6 4.6-4.6 4.6 2.1 4.6 4.6-2.1 4.6-4.6 4.6zm0-8.1c-2 0-3.6 1.6-3.6 3.6s1.6 3.6 3.6 3.6 3.6-1.6 3.6-3.6-1.6-3.6-3.6-3.6z" class="st1"/><path d="M143.1 96.1H113c-.3 0-.5-.2-.5-.5V80.3c0-.3.2-.5.5-.5h30.1c.3 0 .5.2.5.5v15.3c0 .3-.3.5-.5.5zm-29.7-1h29.1V80.8h-29.1v14.3z" class="st1"/></g><g><path d="M139.9 149.1h-6.7c-.3 0-.5-.2-.5-.5s.2-.5.5-.5h6.2v-26.6h-19.7v26.6h9.9c.3 0 .5.2.5.5s-.2.5-.5.5h-10.4c-.3 0-.5-.2-.5-.5V121c0-.3.2-.5.5-.5h20.7c.3 0 .5.2.5.5v27.6c0 .3-.3.5-.5.5z" class="st1"/></g><g><path d="M145.2 154.9h-31.4c-.6 0-1-.4-1-1v-33c0-.6.4-1 1-1h31.4c.6 0 1 .4 1 1v33c0 .6-.4 1-1 1zm-30.4-2h29.4v-31h-29.4v31z" class="st1"/></g><g><path d="M194.4 191.1H61.7c-.3 0-.5-.2-.5-.5v-12.8c0-.3.2-.5.5-.5h27.7c.3 0 .5.2.5.5s-.2.5-.5.5H62.2v11.8h131.7v-11.8H94.1c-.3 0-.5-.2-.5-.5s.2-.5.5-.5h100.3c.3 0 .5.2.5.5v12.8c0 .3-.3.5-.5.5z" class="st1"/></g><g><path d="M153.9 232h-48.8c-.3 0-.5-.2-.5-.5v-20.6c0-.3.2-.5.5-.5h17.2c.3 0 .5.2.5.5s-.2.5-.5.5h-16.7V231h47.8v-19.6h-23.9c-.3 0-.5-.2-.5-.5s.2-.5.5-.5h24.4c.3 0 .5.2.5.5v20.6c0 .3-.2.5-.5.5z" class="st1"/></g><g><path d="M194.4 232.5h-12.9c-.6 0-1-.4-1-1s.4-1 1-1h11.9V121.9H62.6v108.6H177c.6 0 1 .4 1 1s-.4 1-1 1H61.6c-.6 0-1-.4-1-1V120.9c0-.6.4-1 1-1h132.7c.6 0 1 .4 1 1v110.6c.1.6-.4 1-.9 1z" class="st1"/></g></svg>

<svg xmlns="http://www.w3.org/2000/svg" id="Layer_1" x="0" y="0" enable-background="new 0 0 256 256" version="1.1" viewBox="0 0 256 256" xml:space="preserve"><style>.st0{fill:#FFFFFF;}
	.st1{fill:#48386A;}
	.st2{fill:#9FEAFF;}</style><path d="M32.9 46H54.5V56.8H32.9z" class="st0" transform="rotate(-180 43.696 51.344)"/><path d="M54.5 57.7H32.9c-.6 0-1-.4-1-1V46c0-.6.4-1 1-1h21.6c.6 0 1 .4 1 1v10.8c0 .5-.5.9-1 .9zm-20.6-2h19.6V47H33.9v8.7z" class="st1"/><path d="M37.9 46H59.5V56.8H37.9z" class="st2" transform="rotate(-180 48.696 51.344)"/><path d="M54.5 57.7H32.9c-.6 0-1-.4-1-1V46c0-.6.4-1 1-1h21.6c.6 0 1 .4 1 1v10.8c0 .5-.5.9-1 .9zm-20.6-2h19.6V47H33.9v8.7z" class="st1"/><path d="M201.5 46H223.1V56.8H201.5z" class="st0"/><path d="M223.1 57.7h-21.6c-.6 0-1-.4-1-1V46c0-.6.4-1 1-1h21.6c.6 0 1 .4 1 1v10.8c0 .5-.5.9-1 .9zm-20.6-2h19.6V47h-19.6v8.7z" class="st1"/><path d="M206.5 46H228.1V56.8H206.5z" class="st2"/><path d="M223.1 57.7h-21.6c-.6 0-1-.4-1-1V46c0-.6.4-1 1-1h21.6c.6 0 1 .4 1 1v10.8c0 .5-.5.9-1 .9zm-20.6-2h19.6V47h-19.6v8.7z" class="st1"/><path d="M170.9 75.2 85.1 75.2 89.2 62.7 91.2 56.7 95.3 44.3 105.2 44.3 105.2 67.5 150.8 67.5 150.8 44.3 160.7 44.3 164.8 56.7 166.8 62.7z" class="st0"/><path d="M170.9 76.2H85.1c-.3 0-.6-.2-.8-.4-.2-.3-.2-.6-.1-.9L94.4 44c.1-.4.5-.7.9-.7h9.8c.6 0 1 .4 1 1v22.2h43.7V44.3c0-.6.4-1 1-1h9.8c.4 0 .8.3.9.7l10.2 30.9c.1.3 0 .6-.1.9-.1.2-.4.4-.7.4zm-84.4-2h83L160 45.3h-8.1v22.2c0 .6-.4 1-1 1h-45.7c-.6 0-1-.4-1-1V45.3h-8.1l-9.6 28.9z" class="st1"/><path d="M150.8 68.5h-45.7c-.6 0-1-.4-1-1V44.3c0-.6.4-1 1-1h45.7c.6 0 1 .4 1 1v23.2c0 .6-.4 1-1 1zm-44.6-2h43.7V45.3h-43.7v21.2z" class="st1"/><path d="M150.8 52.7 150.8 67.5 105.2 67.5 105.2 44.3 150.8 44.3 150.8 52.7z" class="st0"/><path d="M150.8 68.5h-45.7c-.6 0-1-.4-1-1V44.3c0-.6.4-1 1-1h45.7c.6 0 1 .4 1 1v23.2c0 .6-.4 1-1 1zm-44.6-2h43.7V45.3h-43.7v21.2z" class="st1"/><path d="M250.5 59.7c0 1.7-1.3 3-3 3h-80.7l-2-6h82.7c1.7 0 3 1.4 3 3z" class="st0"/><path d="M247.5 63.7h-80.7c-.4 0-.8-.3-.9-.7l-2-6c-.1-.3 0-.6.1-.9.2-.3.5-.4.8-.4h82.7c2.2 0 4 1.8 4 4s-1.8 4-4 4zm-80-2h80c1.1 0 2-.9 2-2s-.9-2-2-2h-81.3l1.3 4z" class="st1"/><path d="M250.5 59.7c0 1.7-1.3 3-3 3h-80.7l-2-6h82.7c1.7 0 3 1.4 3 3z" class="st0"/><path d="M247.5 63.7h-80.7c-.4 0-.8-.3-.9-.7l-2-6c-.1-.3 0-.6.1-.9.2-.3.5-.4.8-.4h82.7c2.2 0 4 1.8 4 4s-1.8 4-4 4zm-80-2h80c1.1 0 2-.9 2-2s-.9-2-2-2h-81.3l1.3 4z" class="st1"/><path d="M208.9 35.2H215.70000000000002V46H208.9z" class="st0"/><path d="M215.7 47h-6.8c-.6 0-1-.4-1-1V35.2c0-.6.4-1 1-1h6.8c.6 0 1 .4 1 1V46c0 .5-.4 1-1 1zm-5.8-2h4.8v-8.8h-4.8V45z" class="st1"/><path d="M223.2 35.2h-31.4c-2.9 0-5.3-2.4-5.3-5.3v-.2c0-2.9 2.4-5.3 5.3-5.3H233c2.9 0 5.3 2.4 5.3 5.3v.2c0 2.9-2.4 5.3-5.3 5.3h-9.8z" class="st0"/><path d="M232.9 36.2h-3.7c-.6 0-1-.4-1-1s.4-1 1-1h3.7c2.4 0 4.3-1.9 4.3-4.3v-.2c0-2.4-1.9-4.3-4.3-4.3h-41.2c-2.4 0-4.3 1.9-4.3 4.3v.2c0 2.4 1.9 4.3 4.3 4.3h31.4c.6 0 1 .4 1 1s-.4 1-1 1h-31.4c-3.5 0-6.3-2.8-6.3-6.3v-.2c0-3.5 2.8-6.3 6.3-6.3h41.2c3.5 0 6.3 2.8 6.3 6.3v.2c0 3.5-2.9 6.3-6.3 6.3z" class="st1"/><path d="M30.7 62.7H8.5c-1.7 0-3-1.3-3-3s1.3-3 3-3h82.7l-2 6H30.7z" class="st0"/><path d="M89.2 63.7H36.5c-.6 0-1-.4-1-1s.4-1 1-1h52l1.3-4H8.5c-1.1 0-2 .9-2 2s.9 2 2 2h22.2c.6 0 1 .4 1 1s-.4 1-1 1H8.5c-2.2 0-4-1.8-4-4s1.8-4 4-4h82.7c.3 0 .6.2.8.4.2.3.2.6.1.9l-2 6c0 .5-.4.7-.9.7z" class="st1"/><path d="M40.3 35.2H47.099999999999994V46H40.3z" class="st0" transform="rotate(-180 43.696 40.561)"/><path d="M47.1 47h-6.8c-.6 0-1-.4-1-1V35.2c0-.6.4-1 1-1h6.8c.6 0 1 .4 1 1V46c0 .5-.4 1-1 1zm-5.8-2h4.8v-8.8h-4.8V45z" class="st1"/><path d="M23.1 35.2h41.2c2.9 0 5.3-2.4 5.3-5.3v-.2c0-2.9-2.4-5.3-5.3-5.3H23.1c-2.9 0-5.3 2.4-5.3 5.3v.2c0 2.9 2.4 5.3 5.3 5.3z" class="st0"/><path d="M64.3 36.2H23.1c-3.5 0-6.3-2.8-6.3-6.3v-.2c0-3.5 2.8-6.3 6.3-6.3h41.2c3.5 0 6.3 2.8 6.3 6.3v.2c0 3.5-2.9 6.3-6.3 6.3zM23.1 25.4c-2.4 0-4.3 1.9-4.3 4.3v.2c0 2.4 1.9 4.3 4.3 4.3h41.2c2.4 0 4.3-1.9 4.3-4.3v-.2c0-2.4-1.9-4.3-4.3-4.3H23.1z" class="st1"/><path d="M151.7 87.9 151.7 95.6 104.3 95.6 104.3 75.2 151.7 75.2 151.7 82.4z" class="st0"/><path d="M151.7 96.6h-47.5c-.6 0-1-.4-1-1V75.2c0-.6.4-1 1-1h47.5c.6 0 1 .4 1 1v7.2c0 .6-.4 1-1 1s-1-.4-1-1v-6.2h-45.5v18.4h45.5v-6.7c0-.6.4-1 1-1s1 .4 1 1v7.7c0 .5-.4 1-1 1z" class="st1"/><path d="M177 231.5 61.6 231.5 61.6 120.9 194.4 120.9 194.4 231.5 181.5 231.5z" class="st0"/><path d="M194.4 232.5h-12.9c-.6 0-1-.4-1-1s.4-1 1-1h11.9V121.9H62.6v108.6H177c.6 0 1 .4 1 1s-.4 1-1 1H61.6c-.6 0-1-.4-1-1V120.9c0-.6.4-1 1-1h132.7c.6 0 1 .4 1 1v110.6c.1.6-.4 1-.9 1z" class="st1"/><path d="M184.8 172.9h-27.3c-.3 0-.5-.2-.5-.5s.2-.5.5-.5h26.8v-39.8h-38.6v21.8c0 .3-.2.5-.5.5h-31.4c-.3 0-.5-.2-.5-.5v-21.8H71.7v39.8h80.1c.3 0 .5.2.5.5s-.2.5-.5.5H71.2c-.3 0-.5-.2-.5-.5v-40.8c0-.3.2-.5.5-.5h42.6c.3 0 .5.2.5.5v21.8h30.4v-21.8c0-.3.2-.5.5-.5h39.6c.3 0 .5.2.5.5v40.8c0 .3-.2.5-.5.5zM184.8 221.3h-25.6c-.3 0-.5-.2-.5-.5V206h-58.5v14.8c0 .3-.2.5-.5.5H71.2c-.3 0-.5-.2-.5-.5v-24.9c0-.3.2-.5.5-.5h113.7c.3 0 .5.2.5.5v24.9c-.1.3-.3.5-.6.5zm-25-1h24.6v-23.9H71.7v23.9h27.6v-14.8c0-.3.2-.5.5-.5h59.5c.3 0 .5.2.5.5v14.8z" class="st1"/><path d="M194.4 196.9H61.6c-.6 0-1-.4-1-1v-23.5c0-.6.4-1 1-1h90.1c.6 0 1 .4 1 1s-.4 1-1 1H62.6v21.5h130.7v-21.5h-35.9c-.6 0-1-.4-1-1s.4-1 1-1h36.9c.6 0 1 .4 1 1v23.5c.1.6-.4 1-.9 1zM159.3 232.6H99.7c-.6 0-1-.4-1-1v-26c0-.6.4-1 1-1h59.5c.6 0 1 .4 1 1v26c.1.6-.4 1-.9 1zm-58.6-2h57.5v-24h-57.5v24z" class="st1"/><path d="M155.8 52.7 155.8 67.5 110.2 67.5 110.2 44.3 155.8 44.3 155.8 52.7z" class="st2"/><path d="M228.2 35.2h-31.4c-2.9 0-5.3-2.4-5.3-5.3v-.2c0-2.9 2.4-5.3 5.3-5.3H238c2.9 0 5.3 2.4 5.3 5.3v.2c0 2.9-2.4 5.3-5.3 5.3h-9.8zM28.1 35.2h41.2c2.9 0 5.3-2.4 5.3-5.3v-.2c0-2.9-2.4-5.3-5.3-5.3H28.1c-2.9 0-5.3 2.4-5.3 5.3v.2c0 2.9 2.4 5.3 5.3 5.3z" class="st2"/><path d="M125.8 72.4H140.1V102.5H125.8z" class="st2" transform="rotate(90 133 87.452)"/><path d="M98.4 177.7 196.8 177.7 196.8 190.6 66.7 190.6 66.7 177.7 93.8 177.7z" class="st2"/><path d="M134.5 148.6 124.2 148.6 124.2 120.9 144.9 120.9 144.9 148.6 138.1 148.6z" class="st2"/><path d="M134.1 210.9 158.1 210.9 158.1 231.5 110.1 231.5 110.1 210.9 127 210.9z" class="st2"/><path d="M83.8 121.4c-.1 0-.2 0-.3-.1-.2-.2-.2-.5-.1-.7l20.4-25.3c.2-.2.5-.2.7-.1.2.2.2.5.1.7l-20.4 25.3c-.1.2-.2.2-.4.2zM172.2 121.4c-.1 0-.3-.1-.4-.2l-20.4-25.3c-.2-.2-.1-.5.1-.7.2-.2.5-.1.7.1l20.4 25.3c.2.2.1.5-.1.7-.1.1-.2.1-.3.1z" class="st1"/><g><path d="M69.6 30.3H55.7c-.3 0-.5-.2-.5-.5s.2-.5.5-.5h13.9c.3 0 .5.2.5.5s-.3.5-.5.5z" class="st1"/></g><g><path d="M49.8 30.3h-32c-.3 0-.5-.2-.5-.5s.2-.5.5-.5h32c.3 0 .5.2.5.5s-.2.5-.5.5z" class="st1"/></g><g><path d="M64.3 36.2H23.1c-3.5 0-6.3-2.8-6.3-6.3v-.2c0-3.5 2.8-6.3 6.3-6.3h41.2c3.5 0 6.3 2.8 6.3 6.3v.2c0 3.5-2.9 6.3-6.3 6.3zM23.1 25.4c-2.4 0-4.3 1.9-4.3 4.3v.2c0 2.4 1.9 4.3 4.3 4.3h41.2c2.4 0 4.3-1.9 4.3-4.3v-.2c0-2.4-1.9-4.3-4.3-4.3H23.1z" class="st1"/></g><g><path d="M145.7 62.9h-5.9c-.3 0-.5-.2-.5-.5s.2-.5.5-.5h5.4V44.8h-34.5v17.1H135c.3 0 .5.2.5.5s-.2.5-.5.5h-24.7c-.3 0-.5-.2-.5-.5V44.3c0-.3.2-.5.5-.5h35.5c.3 0 .5.2.5.5v18.1c-.1.3-.3.5-.6.5z" class="st1"/></g><g><path d="M150.8 68.5h-45.7c-.6 0-1-.4-1-1V44.3c0-.6.4-1 1-1h45.7c.6 0 1 .4 1 1v23.2c0 .6-.4 1-1 1zm-44.6-2h43.7V45.3h-43.7v21.2z" class="st1"/></g><g><path d="M238.2 30.3h-51.7c-.3 0-.5-.2-.5-.5s.2-.5.5-.5h51.7c.3 0 .5.2.5.5s-.3.5-.5.5z" class="st1"/></g><g><path d="M232.9 36.2h-3.7c-.6 0-1-.4-1-1s.4-1 1-1h3.7c2.4 0 4.3-1.9 4.3-4.3v-.2c0-2.4-1.9-4.3-4.3-4.3h-41.2c-2.4 0-4.3 1.9-4.3 4.3v.2c0 2.4 1.9 4.3 4.3 4.3h31.4c.6 0 1 .4 1 1s-.4 1-1 1h-31.4c-3.5 0-6.3-2.8-6.3-6.3v-.2c0-3.5 2.8-6.3 6.3-6.3h41.2c3.5 0 6.3 2.8 6.3 6.3v.2c0 3.5-2.9 6.3-6.3 6.3z" class="st1"/></g><g><path d="M143.1 96.1H113c-.3 0-.5-.2-.5-.5V80.3c0-.3.2-.5.5-.5h30.1c.3 0 .5.2.5.5v15.3c0 .3-.3.5-.5.5zm-29.7-1h29.1V80.8h-29.1v14.3z" class="st1"/><path d="M128 92.5c-2.5 0-4.6-2.1-4.6-4.6s2.1-4.6 4.6-4.6 4.6 2.1 4.6 4.6-2.1 4.6-4.6 4.6zm0-8.1c-2 0-3.6 1.6-3.6 3.6s1.6 3.6 3.6 3.6 3.6-1.6 3.6-3.6-1.6-3.6-3.6-3.6z" class="st1"/><path d="M143.1 96.1H113c-.3 0-.5-.2-.5-.5V80.3c0-.3.2-.5.5-.5h30.1c.3 0 .5.2.5.5v15.3c0 .3-.3.5-.5.5zm-29.7-1h29.1V80.8h-29.1v14.3z" class="st1"/></g><g><path d="M139.9 149.1h-6.7c-.3 0-.5-.2-.5-.5s.2-.5.5-.5h6.2v-26.6h-19.7v26.6h9.9c.3 0 .5.2.5.5s-.2.5-.5.5h-10.4c-.3 0-.5-.2-.5-.5V121c0-.3.2-.5.5-.5h20.7c.3 0 .5.2.5.5v27.6c0 .3-.3.5-.5.5z" class="st1"/></g><g><path d="M145.2 154.9h-31.4c-.6 0-1-.4-1-1v-33c0-.6.4-1 1-1h31.4c.6 0 1 .4 1 1v33c0 .6-.4 1-1 1zm-30.4-2h29.4v-31h-29.4v31z" class="st1"/></g><g><path d="M194.4 191.1H61.7c-.3 0-.5-.2-.5-.5v-12.8c0-.3.2-.5.5-.5h27.7c.3 0 .5.2.5.5s-.2.5-.5.5H62.2v11.8h131.7v-11.8H94.1c-.3 0-.5-.2-.5-.5s.2-.5.5-.5h100.3c.3 0 .5.2.5.5v12.8c0 .3-.3.5-.5.5z" class="st1"/></g><g><path d="M153.9 232h-48.8c-.3 0-.5-.2-.5-.5v-20.6c0-.3.2-.5.5-.5h17.2c.3 0 .5.2.5.5s-.2.5-.5.5h-16.7V231h47.8v-19.6h-23.9c-.3 0-.5-.2-.5-.5s.2-.5.5-.5h24.4c.3 0 .5.2.5.5v20.6c0 .3-.2.5-.5.5z" class="st1"/></g><g><path d="M194.4 232.5h-12.9c-.6 0-1-.4-1-1s.4-1 1-1h11.9V121.9H62.6v108.6H177c.6 0 1 .4 1 1s-.4 1-1 1H61.6c-.6 0-1-.4-1-1V120.9c0-.6.4-1 1-1h132.7c.6 0 1 .4 1 1v110.6c.1.6-.4 1-.9 1z" class="st1"/></g></svg>
